X: 53
T:Miss Greenup's Strathspey. WI.053
M:C|
Q:160
C:"by W.Irwin"
S:Wm Irwin, Folio MS, c1850. AGG's Transcription
R:Strathspey
O:England
A:Lake District
N:He married her.
Z:vmp.Chris Partington.2005
K:F
A,>FC>F A,>F A2|c>A (B/A/)(G/F/) E<G G2|\
A,>FC>F A,>F B>d|c>AG>A F2:|!
((3cde)|f>cfe d<fc>A|B>ba>f e<g g2|\
f>cfe d<fc>A|B>dc>E F2 ((3cde)|!
f>ca>g fedc|B>bA>a e<g "tr" g2|\
((3fga) ((3gfe) ((3fed) ((3cBA)|((3BdB) ((3AGF) ((3CDE) F2|]
